X:189
T:De'el's Dead, The
M:2/4
L:1/8
B:Thompson's Compleat Collection of 200 Favourite Country Dances, vol. 2 (London, 1765)
Z:Transcribed and edited by Flynn Titford-Mock, 2007
Z:abc's:AK/Fiddler's Companion
K:F
FG Ac | f2 ed | f2 ed | f2a2 | FG Ac | f>ga>g | fdcA | G2d2 :|
|: FGAB | cF (A/B/c/A/) | cF (A/B/c/A/) | d/c/B/A/ G2 | FGAc | f>ga>g | fdcA | G2d2 :|

